assets/Evergreen tree/Flat/evergreen_tree_flat.svg

<svg width="32" height="32" viewBox="0 0 32 32" fill="none" xmlns="http://www.w3.org/2000/svg">
<path d="M19.1573 30H12.8456C12.3098 30 11.9026 29.3916 12.0204 28.7573L12.5348 26H19.4681L19.9824 28.7573C20.0896 29.3916 19.6931 30 19.1573 30Z" fill="#6D4534"/>
<path d="M14.8771 6.71419L12.178 11.8408C11.6744 12.7931 12.2988 14 13.3059 14H13.9079C11.7467 14 10 15.5917 10 17.5612C10 18.3615 10.7105 19 11.5789 19H11.7231C9.11588 19 7 21.2269 7 23.971C7 25.6491 8.29359 27 9.87798 27H22.122C23.7164 27 25 25.6385 25 23.971C25.01 21.2269 22.8941 19 20.2769 19H20.4211C21.2994 19 22 18.3525 22 17.5612C22 15.6007 20.2533 14 18.0921 14H18.6941C19.7012 14 20.3256 12.8042 19.822 11.8408L17.1229 6.71419C16.6294 5.76194 15.3806 5.76194 14.8771 6.71419Z" fill="#44911B"/>
</svg>

<svg xmlns="http://www.w3.org/2000/svg" width="32" height="32" fill="none"><path fill="#6D4534" d="M19.157 30h-6.311c-.536 0-.943-.608-.826-1.243L12.535 26h6.933l.514 2.757c.108.635-.289 1.243-.825 1.243Z"/><path fill="#44911B" d="m14.877 6.714-2.699 5.127c-.504.952.12 2.159 1.128 2.159h.602C11.747 14 10 15.592 10 17.561c0 .8.71 1.439 1.579 1.439h.144C9.116 19 7 21.227 7 23.971 7 25.649 8.294 27 9.878 27h12.244C23.716 27 25 25.639 25 23.971 25.01 21.227 22.894 19 20.277 19h.144C21.3 19 22 18.352 22 17.561 22 15.601 20.253 14 18.092 14h.602c1.007 0 1.632-1.196 1.128-2.16l-2.7-5.126c-.493-.952-1.741-.952-2.245 0Z"/></svg>
